svgs/regular/window.svg

<svg xmlns="http://www.w3.org/2000/svg" viewBox="0 0 512 512"><!--! Font Awesome Pro 6.3.0 by @fontawesome - https://fontawesome.com License - https://fontawesome.com/license (Commercial License) Copyright 2023 Fonticons, Inc. --><path d="M0 96C0 60.7 28.7 32 64 32H448c35.3 0 64 28.7 64 64v64 48 16V416c0 35.3-28.7 64-64 64L64 480c-35.3 0-64-28.7-64-64V224 208 160 96zM464 224H48l0 192c0 8.8 7.2 16 16 16l384 0c8.8 0 16-7.2 16-16l0-192zM96 160a32 32 0 1 0 0-64 32 32 0 1 0 0 64zm128-32a32 32 0 1 0 -64 0 32 32 0 1 0 64 0zm64 32a32 32 0 1 0 0-64 32 32 0 1 0 0 64z"/></svg>

<svg xmlns="http://www.w3.org/2000/svg" viewBox="0 0 512 512"><!--! Font Awesome Pro 6.2.0 by @fontawesome - https://fontawesome.com License - https://fontawesome.com/license (Commercial License) Copyright 2022 Fonticons, Inc. --><path d="M0 96C0 60.65 28.65 32 64 32H448C483.3 32 512 60.65 512 96V416C512 451.3 483.3 480 448 480H64C28.65 480 0 451.3 0 416V96zM464 224H48V416C48 424.8 55.16 432 64 432H448C456.8 432 464 424.8 464 416V224zM96 160C113.7 160 128 145.7 128 128C128 110.3 113.7 96 96 96C78.33 96 64 110.3 64 128C64 145.7 78.33 160 96 160zM192 96C174.3 96 160 110.3 160 128C160 145.7 174.3 160 192 160C209.7 160 224 145.7 224 128C224 110.3 209.7 96 192 96zM288 160C305.7 160 320 145.7 320 128C320 110.3 305.7 96 288 96C270.3 96 256 110.3 256 128C256 145.7 270.3 160 288 160z"/></svg>
